src/assets/Link.svg

<svg width="32" height="33" viewBox="0 0 32 33" fill="none" xmlns="http://www.w3.org/2000/svg">
<path d="M12.1337 22.4999H9.23125V13.1531H12.1337V22.4999ZM10.6809 11.8781C9.75281 11.8781 9 11.1093 9 10.1812C9 9.73537 9.1771 9.30782 9.49234 8.99258C9.80757 8.67734 10.2351 8.50024 10.6809 8.50024C11.1267 8.50024 11.5543 8.67734 11.8695 8.99258C12.1848 9.30782 12.3619 9.73537 12.3619 10.1812C12.3619 11.1093 11.6088 11.8781 10.6809 11.8781ZM22.9969 22.4999H20.1006V17.9499C20.1006 16.8656 20.0787 15.4749 18.5916 15.4749C17.0825 15.4749 16.8513 16.6531 16.8513 17.8718V22.4999H13.9519V13.1531H16.7356V14.4281H16.7762C17.1637 13.6937 18.1103 12.9187 19.5225 12.9187C22.46 12.9187 23 14.8531 23 17.3656V22.4999H22.9969Z" fill="white"/>
</svg>

<svg xmlns="http://www.w3.org/2000/svg" width="32" height="33" fill="none" viewBox="0 0 32 33"><path fill="#fff" d="M12.134 22.5H9.23v-9.347h2.903zM10.68 11.878c-.927 0-1.68-.768-1.68-1.697a1.68 1.68 0 1 1 3.362 0c0 .928-.753 1.697-1.681 1.697M22.997 22.5H20.1v-4.55c0-1.084-.022-2.475-1.51-2.475-1.509 0-1.74 1.178-1.74 2.397V22.5h-2.9v-9.347h2.785v1.275h.04c.388-.734 1.334-1.51 2.747-1.51 2.937 0 3.477 1.935 3.477 4.448V22.5z"/></svg>
